packages/ui-icons/src/Service-logos/24/Mail-ru.svg

<?xml version="1.0" encoding="UTF-8"?>
<svg viewBox="0 0 32 32" version="1.1" xmlns="http://www.w3.org/2000/svg" xmlns:xlink="http://www.w3.org/1999/xlink">
    <!-- Generator: Sketch 50 (54983) - http://www.bohemiancoding.com/sketch -->
    <title>logo/24/mail-ru</title>
    <desc>Created with Sketch.</desc>
    <defs></defs>
    <g id="logo/24/mail-ru" stroke="none" stroke-width="1" fill="none" fill-rule="evenodd">
        <circle id="Oval-4" fill="#168DE2" cx="16" cy="16" r="12"></circle>
        <path d="M18.7631174,15.928724 C18.6722277,14.1997959 17.3587255,13.1605769 15.7732872,13.1605769 L15.7139157,13.1605769 C13.8836618,13.1605769 12.8684829,14.5664948 12.8684829,16.1636405 C12.8684829,17.9527301 14.0962263,19.0821914 15.7065859,19.0821914 C17.5016568,19.0821914 18.6817564,17.7973128 18.7675152,16.2775177 L18.7631174,15.928724 Z M15.7227115,11.6142821 C16.9453241,11.6142821 18.0946385,12.142128 18.9390328,12.9686329 L18.9390328,12.972214 C18.9390328,12.5747181 19.2124348,12.276059 19.592119,12.276059 L19.6881396,12.2753428 C20.2818543,12.2753428 20.4035292,12.824675 20.4035292,12.9979975 L20.4064611,19.1710013 C20.3646812,19.5749431 20.8337891,19.7833598 21.0932645,19.5240922 C22.1077104,18.5056433 23.3207942,14.2878896 20.4629007,11.8441851 C17.7985141,9.56592486 14.224498,9.94121828 12.3231449,11.2217996 C10.3023158,12.5833126 9.00933707,15.5978355 10.2656668,18.4282928 C11.6348756,21.5165852 15.5533929,22.4369135 17.882074,21.5187338 C19.0607077,21.0539143 19.6060457,22.6116685 18.3812342,23.1201767 C16.5304567,23.8908174 11.3797981,23.8134669 8.97415397,19.7403873 C7.34840176,16.9908617 7.43489354,12.1521549 11.7462887,9.64542404 C15.0447039,7.72741683 19.3927482,8.25884377 22.0146218,10.9345999 C24.7559713,13.7313953 24.5954484,18.9697466 21.9222662,21.0066445 C20.7113813,21.9319863 18.9119125,21.0309956 18.9236402,19.6830906 L18.9111795,19.241906 C18.0675182,20.0598164 16.9453241,20.5368115 15.7227115,20.5368115 C13.3068056,20.5368115 11.1804273,18.4598059 11.1804273,16.0998979 C11.1804273,13.7149225 13.3068056,11.6142821 15.7227115,11.6142821 Z" id="Fill-1" fill="#FFA930"></path>
    </g>
</svg>

<svg viewBox="0 0 32 32" xmlns="http://www.w3.org/2000/svg"><g fill="none" fill-rule="evenodd"><circle fill="#168DE2" cx="16" cy="16" r="12"/><path d="M18.763 15.929c-.09-1.73-1.404-2.768-2.99-2.768h-.06c-1.83 0-2.845 1.405-2.845 3.003 0 1.789 1.228 2.918 2.839 2.918 1.795 0 2.975-1.285 3.06-2.804l-.004-.35Zm-3.04-4.315c1.222 0 2.372.528 3.216 1.355v.003c0-.397.273-.696.653-.696h.096c.594 0 .716.549.716.722l.002 6.173c-.041.404.428.612.687.353 1.015-1.018 2.228-5.236-.63-7.68-2.664-2.278-6.239-1.903-8.14-.622-2.02 1.361-3.314 4.376-2.057 7.206 1.369 3.089 5.287 4.009 7.616 3.09 1.179-.464 1.724 1.094.5 1.602-1.852.77-7.002.693-9.408-3.38-1.626-2.75-1.54-7.588 2.772-10.095 3.299-1.918 7.647-1.386 10.269 1.29 2.741 2.796 2.58 8.035-.093 10.072-1.21.925-3.01.024-2.998-1.324l-.013-.441a4.553 4.553 0 0 1-3.188 1.295c-2.416 0-4.543-2.077-4.543-4.437 0-2.385 2.127-4.486 4.543-4.486Z" fill="#FFA930"/></g></svg>
